X:1
T:Title
%%score { ( 1 4 ) | ( 2 3 ) }
L:1/8
M:4/4
K:Eb
V:1 treble nm="Grand Piano"
V:4 treble 
V:2 bass 
V:3 bass 
V:1
 z4 z2[Q:1/4=80] E2 | G2 GF FE[G,B,E][EG] | z2 B2 B4 | [B,EG]2 [B,EG]F FE[G,B,E][EG] | %4
 [=A,EF]2 [A,EF]2 [DF]3 [FA] | G2 GF FE[G,B,E][EG] | B2 B2 B4 | [Ec]2[K:bass][K:treble] [Ec]2 B4 | %8
[M:3/4] F2 c2 z2 |[M:3/8] [DB]3 | %10
[M:4/4][K:bass] B,-[F,B,D][K:treble][G,B,E][B,DF] [EG][DF][B,EG][B,DF] | [EG][DF]GA BAGA | %12
 BGAB c[Ad][Be]f |[M:7/8] e2 [Ad]2 [Ge]3 |] %14
V:2
 z4 z2 [E,G,B,]2 | [E,B,E]2 [B,E][A,B,] B,-[G,B,] z B, | z EF,A, [G,E]A,B,B,, | %3
 E,2 z [A,B,] [E,B,]-[E,G,B,] z B, | F,E,C,F, [B,,B,]3 [B,,B,] | %5
 [E,B,E]2 [B,E][A,B,] [E,B,]-[E,G,B,] z B, | .[B,,A,]2 B,,-[B,,A,] [G,E]A,B,[E,G,E] | %7
 .[A,,A,]2 .[C,A,]2 [E,G,E][F,A,][G,B,][E,B,E] |[M:3/4] .[F,B,E]2 .[F,G,E]2 [B,,B,]2 | %9
[M:3/8] [B,,A,]3 |[M:4/4] E,B,,E,B,, E,B,,E,B,, | E,B,,[E,B,E][F,B,D] [G,E][F,B,D][E,B,E][F,B,D] | %12
 [B,E]-[E,B,E][F,B,D][G,E] [A,E][F,B,][K:treble][G,E][A,CA] | %13
[M:7/8] [B,G]2[K:bass] [B,,B,]2 [E,B,]3 |] %14
V:3
 x8 | z2 E,2 .A,2 E,2 | B,,2 B,,2 E,4 | z2 E,2 .A,2 E,2 | x8 | z2 E,2 .A,2 E,2 | z2 .F,2 E,4 | x8 | %8
[M:3/4] x6 |[M:3/8] x3 |[M:4/4] x8 | x8 | .G,2 z2 z4[K:treble] |[M:7/8] x2[K:bass] x5 |] %14
V:4
 x8 | x8 | .[A,FB]2 DF z FG[B,FA] | x8 | x8 | x8 | F[G,E]DF z FGB | %7
 z[K:bass] B,,[K:treble] z D, z DEG |[M:3/4] z =A, z A, [DB]2 |[M:3/8] x3 | %10
[M:4/4][K:bass] .[G,E]2[K:treble] z2 B,2 z2 | B,2 z2 z4 | x8 |[M:7/8] x7 |] %14

